X: 6216
T: Carmarthen
R: hornpipe
M: 4/4
K: Dmajor
|a2 g>f e>d a>A|B>c d2 f2d|
|:(3ABc|d>f e>d c>A B>c|d>c d>e f>e f>g|(3agf (3gfe d>f e>d|1 c2 [a2c2][a2c2]:|2 c2 f2 d2||
|:[A2e2]|[A4e4] cA e2|f>g e>f d>e c>d|B2 c>d e>f g>e|A>a a>e A2 d>c|
B>G E>c d>B G>d|e>c A>e f>d B>a|g>f e>d a>A B>c|d2 f2 d2:|

